app/assets/images/payment_icons/ideal.svg

<svg xmlns="http://www.w3.org/2000/svg" role="img" viewBox="0 0 38 24" width="38" height="24" aria-labelledby="pi-ideal"><title id="pi-ideal">iDEAL</title><g clip-path="url(#pi-clip0_19918_2)"><path fill="#000" opacity=".07" d="M35 0H3C1.3 0 0 1.3 0 3V21C0 22.7 1.4 24 3 24H35C36.7 24 38 22.7 38 21V3C38 1.3 36.6 0 35 0Z" /><path fill="#fff" d="M35 1C36.1 1 37 1.9 37 3V21C37 22.1 36.1 23 35 23H3C1.9 23 1 22.1 1 21V3C1 1.9 1.9 1 3 1H35Z" /><g clip-path="url(#pi-clip1_19918_2)"><path d="M11.5286 5.35759V18.694H19.6782C25.0542 18.694 27.3855 15.8216 27.3855 12.0125C27.3855 8.21854 25.0542 5.35742 19.6782 5.35742L11.5286 5.35759Z" fill="white"/><path d="M19.7305 5.06445C26.8437 5.06445 27.9055 9.4164 27.9055 12.0098C27.9055 16.5096 25.0025 18.9876 19.7305 18.9876H11.0118V5.06462L19.7305 5.06445ZM11.6983 5.71921V18.3329H19.7305C24.5809 18.3329 27.2195 16.1772 27.2195 12.0098C27.2195 7.72736 24.3592 5.71921 19.7305 5.71921H11.6983Z" fill="black"/><path d="M12.7759 17.3045H15.3474V12.9372H12.7757M15.6593 10.7375C15.6593 11.5796 14.944 12.2625 14.0613 12.2625C13.179 12.2625 12.4633 11.5796 12.4633 10.7375C12.4633 10.3332 12.6316 9.94537 12.9313 9.65945C13.231 9.37352 13.6374 9.21289 14.0613 9.21289C14.4851 9.21289 14.8915 9.37352 15.1912 9.65945C15.4909 9.94537 15.6593 10.3332 15.6593 10.7375Z" fill="black"/><path d="M20.7043 11.4505V12.1573H18.8719V9.32029H20.6452V10.0266H19.6127V10.3556H20.5892V11.0616H19.6127V11.4503L20.7043 11.4505ZM21.06 12.158L21.9569 9.31944H23.0109L23.9075 12.158H23.1362L22.9683 11.6089H21.9995L21.8308 12.158H21.06ZM22.216 10.9028H22.7518L22.5067 10.1007H22.4623L22.216 10.9028ZM24.2797 9.31944H25.0205V11.4505H26.1178C25.8168 7.58344 22.6283 6.74805 19.7312 6.74805H16.6418V9.32063H17.0989C17.9328 9.32063 18.4505 9.86014 18.4505 10.7275C18.4505 11.6228 17.9449 12.157 17.0989 12.157H16.6422V17.3052H19.7308C24.4416 17.3052 26.081 15.218 26.1389 12.1572H24.2797V9.31944ZM16.6415 10.0273V11.4505H17.0992C17.4165 11.4505 17.7094 11.3631 17.7094 10.7278C17.7094 10.1067 17.3834 10.0271 17.0992 10.0271L16.6415 10.0273Z" fill="#CC0066"/></g></g><defs><clipPath id="pi-clip0_19918_2"><rect width="38" height="24" fill="white"/></clipPath><clipPath id="pi-clip1_19918_2"><rect width="17" height="14" fill="white" transform="translate(11 5)"/></clipPath></defs></svg>

<svg xmlns="http://www.w3.org/2000/svg" xmlns:xlink="http://www.w3.org/1999/xlink" fill="none" viewBox="0 0 38 24" height="24" width="38" aria-labelledby="pi-ideal" role="img"><title id="pi-ideal">iDEAL</title><defs><path id="pi-ideal-b" fill="#fff" d="M0 0h38v24H0z"/></defs><g clip-path="url(#pi-ideal-a)"><use xlink:href="#pi-ideal-b"/><mask id="pi-ideal-c" width="38" height="24" x="0" y="0" maskUnits="userSpaceOnUse" style="mask-type:luminance"><path fill="#fff" d="M38 0H0v24h38V0Z"/></mask><g mask="url(#pi-ideal-c)"><mask id="pi-ideal-d" width="17" height="14" x="11" y="5" maskUnits="userSpaceOnUse" style="mask-type:luminance"><path fill="#fff" d="M28 5H11v14h17V5Z"/></mask><g mask="url(#pi-ideal-d)"><path fill="#fff" d="M11.529 5.358v13.336h8.15c5.375 0 7.707-2.872 7.707-6.681 0-3.794-2.332-6.656-7.708-6.656h-8.15Z"/><path fill="#000" d="M19.73 5.064c7.114 0 8.175 4.352 8.175 6.946 0 4.5-2.902 6.978-8.175 6.978h-8.718V5.065h8.718Zm-8.032.655v12.614h8.032c4.85 0 7.49-2.156 7.49-6.323 0-4.283-2.86-6.29-7.49-6.29h-8.032Z"/><path fill="#000" d="M12.776 17.305h2.571v-4.368h-2.571m2.883-2.2c0 .843-.715 1.525-1.598 1.525-.882 0-1.598-.682-1.598-1.524 0-.405.169-.793.468-1.079.3-.285.706-.446 1.13-.446.424 0 .83.16 1.13.446.3.286.468.674.468 1.079Z"/><path fill="#C06" d="M20.704 11.45v.707h-1.832V9.32h1.773v.707h-1.032v.329h.976v.706h-.976v.388h1.091Zm.356.708.897-2.839h1.054l.896 2.839h-.77l-.169-.55H22l-.17.55h-.77Zm1.156-1.255h.536l-.245-.802h-.045l-.246.802Zm2.064-1.584h.74v2.131h1.098c-.301-3.867-3.49-4.702-6.387-4.702h-3.09v2.573h.458c.834 0 1.352.54 1.352 1.406 0 .896-.506 1.43-1.352 1.43h-.457v5.148h3.089c4.71 0 6.35-2.087 6.408-5.148h-1.86V9.32Zm-7.639.708v1.424h.458c.317 0 .61-.088.61-.723 0-.621-.326-.7-.61-.7h-.457Z"/></g></g></g><defs><clipPath id="pi-ideal-a"><use xlink:href="#pi-ideal-b"/></clipPath></defs></svg>
